X:1
T:Petit Valse pour Michelle
M:3/4
N:Play "A" music, "B" music with repeat, "C" music then second "A" music.
K:G
D2G3A | B6 | A2B3c | B3g gg | (3efe de ga | b4ba | ba bg eg | d4e2 |
d2G3A | B6 | A2B3c | B3d Bd | e2d2B2 | A3d dd | de dB AB | G6 |
D2G3A | B6 | A2B3c | B3g gg | (3efe de ga | b4ba | ba b g eg | d4e2 |
c2e2g2 | d2B2G2 | E2G2c2 | B3B BB | (3ABAD3A | G3ddd | de dg dB |
|1 G3G AB :|2 G6 |: (3cdc Bc eg | c'3c' gc' | ba gb ag | b3a aa |
ab a=f df |1 b3a aa | ag ea ge | G3G AB :|2 b3=f ed | ce Gc EG | C6 ||
(3cdc Bceg | c'3c' gc' | ba gb ag | b3a aa | ab a=f df | b3=f ed | ce Gc EG | D3G FE |]
